X: 28264
T: Mrs. Kinney's
R: waltz
M: 3/4
K: Dmajor
K: Dmaj|de||f3 e dc|d2 d2 FG|(3ABA G3 E|A,2 C2 E2|(3gag (3fgf (3efe|(3ded (3cdc (3BcB|A2 AB AG|F2 G2 A2|
f2 fe dc|d2 d2 FG|A2 G3 E|A,2 C2 E2|(3gag (3fgf (3efe|(3ded (3cdc (3BcB|A2 AB cA|d2 d2||
cB|:A2 [d2f2] [d2f2]|A2 [d2f2] [d2f2]|A2 [d2f2] [d2f2]|a^g ba ge|
A2 [c2e2] [c2e2]|A2 [c2e2] [c2e2]|1 A2 [c2e2] [c2e2]|a^g ba ge:|2 ab ag fe|d4||
Ac||d2 df ed|(3cdc c2 ec|(3BcB ^G2 B2|A2 F2 D2|d2 df ed|c2 c2 FG|A2 G3 E|D4 Ac|
d3 fd|c3 ec|(3BcB ^G2 B2|A2 F2 D2|d3 fd|c3 FG|A2 G3 E|D4||

